X:8
T:Steyrer Tanz in F, nr. 2
C:traditionell
R:Steirer
A:Hallstatt, Salzkammergut
B:Corpus Musicae Popularis Austriacae (COMPA), 5.Band: J.M.Schmalnauer " Tanz Musik", Verlag Boehlau, Wien 1996
S:manuscript des Johann Michael Schmalnauer um 1820
N:im der quelle in F
N:um1800
M:3/4
L:1/8
K:F
V:1
F"4"AcA Tc2 | EGcG Tc2 | (EG>) (c=BcE) | F"4"AcA c2 |\
F"4"AcA Tc2 | EGcG Tc2 | (EG>) (c=BcE) | F4 :|
V:2
P:g:Ap:
CFAF TA2 | CEGE G2 | CEGCEG | CFAF A2 |\
CFAF TA2 | CEGE G2 | CEGCEG | A4 :|
